X: 10681
Q: "Andante espressivo."
U: p=!crescendo(!
U: P=!crescendo)!
M: 2/4
L: 1/16
K: C
[|\
!f!c6 d2 | (e3d)(c3A) |\
({e}d3c)(d3e) | d4 z4 |\
!f!c6 d2 | (e3d)(c3B) |\
e4 (f2g2) | G4 ({A/G/^F/G/}A2B2) |\
.c4 .e4 | .c4 z4 |\
!f!B6 c2 | d3GA3B |
c4 d4 {e/d/c/d/}| e4 z4 |\
!p!f4 (g3f) | {f}e4 (d2c2) |\
!f!d4 (^f3g) | HG8 |\
c6 d2 | e3dc2A2 |\
"^cres."G3EG3pc | e8P- |\
!p!e3Gc3"^cres."e | g8- |\
g2(fe) (!ff!dc)(BA) | G3GA2B2 |\
d3c c4 |]


